images/new-dai.svg

<svg height="250" viewBox="0 0 250 250" width="250" xmlns="http://www.w3.org/2000/svg"><path d="m250.300781 81.007812h-26.886719c-14.804687-47.96875-54.605468-81.007812-107.101562-81.007812h-86.328125v81.007812h-29.984375v29.0625h29.984375v30.476563h-29.984375v29.0625h29.984375v80.039063h86.328125c51.890625 0 91.390625-32.6875 106.574219-80.039063h27.414062v-29.0625h-21.375c.53125-5.121094.757813-10.421875.757813-15.722656v-.707031c0-4.769532-.226563-9.453126-.605469-14.046876h21.222656zm-196.148437-55.035156h62.160156c38.519531 0 67.148438 22.171875 80.363281 55.035156h-142.523437zm62.160156 197.613282h-62.160156v-53.976563h142.375c-13.371094 32.335937-41.84375 53.976563-80.214844 53.976563zm88.445312-98.054688c0 5.121094-.300781 10.15625-.90625 15.015625h-149.699218v-30.476563h149.773437c.53125 4.769532.832031 9.71875.832031 14.753907zm0 0" fill="#f4b731"/></svg>

<svg xmlns="http://www.w3.org/2000/svg" xmlns:xlink="http://www.w3.org/1999/xlink" width="250px" height="250px" viewBox="0 0 250 250" version="1.1">
<g id="surface1">
<path style=" stroke:none;fill-rule:nonzero;fill:rgb(95.686275%,71.764708%,19.215687%);fill-opacity:1;" d="M 250.300781 81.007812 L 223.414062 81.007812 C 208.609375 33.039062 168.808594 0 116.3125 0 L 29.984375 0 L 29.984375 81.007812 L 0 81.007812 L 0 110.070312 L 29.984375 110.070312 L 29.984375 140.546875 L 0 140.546875 L 0 169.609375 L 29.984375 169.609375 L 29.984375 249.648438 L 116.3125 249.648438 C 168.203125 249.648438 207.703125 216.960938 222.886719 169.609375 L 250.300781 169.609375 L 250.300781 140.546875 L 228.925781 140.546875 C 229.457031 135.425781 229.683594 130.125 229.683594 124.824219 L 229.683594 124.117188 C 229.683594 119.347656 229.457031 114.664062 229.078125 110.070312 L 250.300781 110.070312 Z M 54.152344 25.972656 L 116.3125 25.972656 C 154.832031 25.972656 183.460938 48.144531 196.675781 81.007812 L 54.152344 81.007812 Z M 116.3125 223.585938 L 54.152344 223.585938 L 54.152344 169.609375 L 196.527344 169.609375 C 183.15625 201.945312 154.683594 223.585938 116.3125 223.585938 Z M 204.757812 125.53125 C 204.757812 130.652344 204.457031 135.6875 203.851562 140.546875 L 54.152344 140.546875 L 54.152344 110.070312 L 203.925781 110.070312 C 204.457031 114.839844 204.757812 119.789062 204.757812 124.824219 Z M 204.757812 125.53125 "/>
</g>
</svg>
